site/img/one-handed.svg

<?xml version="1.0" encoding="UTF-8"?>
<svg width="64px" height="64px" viewBox="0 0 64 64" version="1.1" xmlns="http://www.w3.org/2000/svg" xmlns:xlink="http://www.w3.org/1999/xlink">
    <!-- Generator: Sketch 42 (36781) - http://www.bohemiancoding.com/sketch -->
    <title>2</title>
    <desc>Created with Sketch.</desc>
    <defs>
        <linearGradient x1="50%" y1="100%" x2="50%" y2="3.061617e-15%" id="linearGradient-1">
            <stop stop-color="#6F7D94" offset="0%"></stop>
            <stop stop-color="#6F7D94" stop-opacity="0" offset="100%"></stop>
        </linearGradient>
    </defs>
    <g id="Page-1" stroke="none" stroke-width="1" fill="none" fill-rule="evenodd">
        <g id="Splash" transform="translate(-580.000000, -382.000000)">
            <g id="One-Handed" transform="translate(580.000000, 382.000000)">
                <path d="M48,29 L48,8.99091407 C48,7.88906428 47.103789,7 45.9982567,7 L18.0017433,7 C16.8892617,7 16,7.89136259 16,8.99091407 L16,29 C15.6547004,29 15.3196199,29.043753 15,29.1260175 L15,4.99531509 C15,2.23647875 17.230835,0 19.9985481,0 L44.0014519,0 C46.7620738,0 49,2.2402674 49,4.99531509 L49,29.1260175 C48.6803801,29.043753 48.3452996,29 48,29 Z M48,37 L48,55.0090859 C48,56.1086374 47.1107383,57 45.9982567,57 L38.7101213,57 C37.8495721,59.8914889 35.1710206,62 32,62 C28.8289794,62 26.1504279,59.8914889 25.2898787,57 L18.0017433,57 C16.896211,57 16,56.1109357 16,55.0090859 L16,37 C15.6547004,37 15.3196199,36.956247 15,36.8739825 L15,59.0046849 C15,61.7597326 17.2379262,64 19.9985481,64 L44.0014519,64 C46.769165,64 49,61.7635213 49,59.0046849 L49,36.8739825 C48.6803801,36.956247 48.3452996,37 48,37 Z" id="Combined-Shape" fill="#6F7D94"></path>
                <path d="M47,29.12651 L47,13.0069809 C47,11.3408574 45.6568457,10 43.9999809,10 L20.0000191,10 C18.3473186,10 17,11.3462712 17,13.0069809 L17,29.12651 C18.0397478,29.3946126 18.929323,30.0722751 19.4650385,31 L23,31 L23,30 C23,29.1090951 24.0771419,28.6629284 24.7071068,29.2928932 L27.7071068,32.2928932 C28.0976311,32.6834175 28.0976311,33.3165825 27.7071068,33.7071068 L24.7071068,36.7071068 C24.0771419,37.3370716 23,36.8909049 23,36 L23,35 L19.4650385,35 C18.929323,35.9277249 18.0397478,36.6053874 17,36.87349 L17,50.9930191 C17,52.6591426 18.3431543,54 20.0000191,54 L25.0708889,54 C25.5561185,50.6077059 28.4735281,48 32,48 C35.5264719,48 38.4438815,50.6077059 38.9291111,54 L43.9999809,54 C45.6526814,54 47,52.6537288 47,50.9930191 L47,36.87349 C45.9602522,36.6053874 45.070677,35.9277249 44.5349615,35 L41,35 L41,36 C41,36.8909049 39.9228581,37.3370716 39.2928932,36.7071068 L36.2928932,33.7071068 C35.9023689,33.3165825 35.9023689,32.6834175 36.2928932,32.2928932 L39.2928932,29.2928932 C39.9228581,28.6629284 41,29.1090951 41,30 L41,31 L44.5349615,31 C45.070677,30.0722751 45.9602522,29.3946126 47,29.12651 Z" id="Combined-Shape" fill="url(#linearGradient-1)"></path>
                <path d="M32,61 C28.6862915,61 26,58.3137085 26,55 C26,51.6862915 28.6862915,49 32,49 C35.3137085,49 38,51.6862915 38,55 C38,58.3137085 35.3137085,61 32,61 Z M32,60 C34.7614237,60 37,57.7614237 37,55 C37,52.2385763 34.7614237,50 32,50 C29.2385763,50 27,52.2385763 27,55 C27,57.7614237 29.2385763,60 32,60 Z M32,58 C30.3431458,58 29,56.6568542 29,55 C29,53.3431458 30.3431458,52 32,52 C33.6568542,52 35,53.3431458 35,55 C35,56.6568542 33.6568542,58 32,58 Z" id="Combined-Shape" fill="#FFFFFF"></path>
                <path d="M24,32 L18.8292943,32 C18.4174579,30.8348076 17.3062188,30 16,30 C14.3431458,30 13,31.3431458 13,33 C13,34.6568542 14.3431458,36 16,36 C17.3062188,36 18.4174579,35.1651924 18.8292943,34 L24,34 L24,36 L27,33 L24,30 L24,32 Z" id="Combined-Shape" fill="#FFFFFF"></path>
                <path d="M40,32 L45.1707057,32 C45.5825421,30.8348076 46.6937812,30 48,30 C49.6568542,30 51,31.3431458 51,33 C51,34.6568542 49.6568542,36 48,36 C46.6937812,36 45.5825421,35.1651924 45.1707057,34 L40,34 L40,36 L37,33 L40,30 L40,32 Z" id="Combined-Shape" fill="#FFFFFF"></path>
            </g>
        </g>
    </g>
</svg>

<svg width="64" height="64" viewBox="0 0 64 64" xmlns="http://www.w3.org/2000/svg">
  <title>
    one-handed
  </title>
  <defs>
    <linearGradient x1="50%" y1="100%" x2="50%" y2="0%" id="a">
      <stop stop-color="#6F7D94" offset="0%"/>
      <stop stop-color="#6F7D94" stop-opacity="0" offset="100%"/>
    </linearGradient>
  </defs>
  <g fill="none" fill-rule="evenodd">
    <path d="M48 29V8.99C48 7.89 47.104 7 45.998 7H18.002C16.89 7 16 7.89 16 8.99V29c-.345 0-.68.044-1 .126V4.996C15 2.235 17.23 0 20 0h24c2.762 0 5 2.24 5 4.995v24.13c-.32-.08-.655-.125-1-.125zm0 8v18.01c0 1.1-.89 1.99-2.002 1.99H38.71c-.86 2.89-3.54 5-6.71 5s-5.85-2.11-6.71-5h-7.288C16.896 57 16 56.11 16 55.01V37c-.345 0-.68-.044-1-.126v22.13C15 61.76 17.238 64 20 64h24c2.77 0 5-2.236 5-4.995v-22.13c-.32.08-.655.125-1 .125z" fill="#6F7D94"/>
    <path d="M47 29.127v-16.12C47 11.34 45.657 10 44 10H20c-1.653 0-3 1.346-3 3.007v16.12c1.04.268 1.93.945 2.465 1.873H23v-1c0-.89 1.077-1.337 1.707-.707l3 3c.39.39.39 1.024 0 1.414l-3 3c-.63.63-1.707.184-1.707-.707v-1h-3.535c-.536.928-1.425 1.605-2.465 1.873v14.12C17 52.66 18.343 54 20 54h5.07c.486-3.392 3.404-6 6.93-6s6.444 2.608 6.93 6H44c1.653 0 3-1.346 3-3.007v-14.12c-1.04-.268-1.93-.945-2.465-1.873H41v1c0 .89-1.077 1.337-1.707.707l-3-3c-.39-.39-.39-1.024 0-1.414l3-3c.63-.63 1.707-.184 1.707.707v1h3.535c.536-.928 1.425-1.605 2.465-1.873z" fill="url(#a)"/>
    <path d="M32 61c-3.314 0-6-2.686-6-6s2.686-6 6-6 6 2.686 6 6-2.686 6-6 6zm0-1c2.76 0 5-2.24 5-5s-2.24-5-5-5-5 2.24-5 5 2.24 5 5 5zm0-2c-1.657 0-3-1.343-3-3s1.343-3 3-3 3 1.343 3 3-1.343 3-3 3zM24 32h-5.17c-.413-1.165-1.524-2-2.83-2-1.657 0-3 1.343-3 3s1.343 3 3 3c1.306 0 2.417-.835 2.83-2H24v2l3-3-3-3v2zM40 32h5.17c.413-1.165 1.524-2 2.83-2 1.657 0 3 1.343 3 3s-1.343 3-3 3c-1.306 0-2.417-.835-2.83-2H40v2l-3-3 3-3v2z" fill="#FFF"/>
  </g>
</svg>
